X: 25330
T: Manorhamilton The 8th Of May
R: jig
M: 6/8
K: Ddorian
D3 AGE|GDD AGE|(3DED D AGE|DCA, CDE|
DA,D AGE|GAc cde|dcA cAG|EDC D3:|
Add c2 A|dcA cAG|AEE cAG|AEE DEG|
Add c2 A|AGE DCA,|CDE cAG|EDC D3:|

